coffe/mysql.svg

<svg width="94" height="48" viewBox="0 0 94 48" fill="none" xmlns="http://www.w3.org/2000/svg">
<path d="M91.1274 26.201C89.2337 26.1496 87.7869 26.3246 86.5494 26.8427C86.1977 26.9902 85.6374 26.994 85.5804 27.4315C85.7732 27.6335 85.8031 27.9339 85.9569 28.1814C86.2524 28.6562 86.7512 29.2927 87.1959 29.6259C87.6812 29.9903 88.1822 30.3809 88.7042 30.6969C89.6304 31.2589 90.6654 31.5794 91.5587 32.1414C92.0844 32.4738 92.6064 32.8912 93.1202 33.2662C93.3745 33.4503 93.5439 33.7388 93.8747 33.8543V33.8013C93.7014 33.5822 93.6564 33.281 93.4975 33.0514L92.7969 32.3552C92.1122 31.4519 91.2437 30.6596 90.3189 30.0007C89.5824 29.4753 87.9339 28.7649 87.6264 27.913L87.5724 27.86C88.0944 27.8012 88.7064 27.6134 89.1879 27.4852C89.9979 27.269 90.7217 27.325 91.5579 27.1103L92.6889 26.7882V26.5752C92.2667 26.1443 91.9644 25.5735 91.5039 25.1836C90.2987 24.1633 88.9817 23.1435 87.6264 22.2923C86.8749 21.8213 85.9456 21.515 85.1484 21.1155C84.8814 20.9806 84.4104 20.9114 84.2326 20.687C83.8134 20.1571 83.5861 19.4854 83.2629 18.8675C82.5725 17.5327 81.9259 16.1759 81.3241 14.7994C80.9161 13.8714 80.6491 12.9563 80.1398 12.1237C77.6941 8.12793 75.0615 5.71592 70.9838 3.34572C70.116 2.84113 69.0713 2.64287 67.968 2.38274L66.1905 2.27538C65.8297 2.12557 65.4532 1.68589 65.1134 1.47272C63.7619 0.624514 60.2969 -1.22033 59.2964 1.20577C58.6649 2.73671 60.2414 4.23047 60.8047 5.00637C61.1999 5.55047 61.7069 6.16009 61.9897 6.77202C62.1757 7.1745 62.2072 7.57781 62.3669 8.0034C62.7577 9.05136 63.0989 10.1925 63.6052 11.1607C63.861 11.6512 64.1437 12.1677 64.4669 12.6059C64.6649 12.8743 65.0055 12.9935 65.0587 13.4086C64.7264 13.8707 64.707 14.5893 64.5202 15.1744C63.6787 17.8122 63.9959 21.0909 65.2207 23.043C65.5965 23.643 66.4815 24.9279 67.698 24.4345C68.7623 24.0037 68.5252 22.6688 68.8297 21.4904C68.8987 21.2243 68.856 21.0275 68.991 20.8486V20.9023L69.9607 22.829C70.6785 23.9775 71.9513 25.1768 73.0305 25.987C73.59 26.4067 74.031 27.1333 74.754 27.3785V27.3241H74.7008C74.5598 27.1072 74.3415 27.0178 74.1615 26.8427C73.74 26.432 73.2713 25.9222 72.9233 25.4511C71.9415 24.1274 71.0745 22.6778 70.284 21.1692C69.9068 20.4492 69.579 19.6546 69.261 18.9212C69.138 18.6387 69.1395 18.2109 68.8845 18.0656C68.535 18.6022 68.0228 19.0368 67.7528 19.6711C67.3223 20.6847 67.2667 21.9213 67.107 23.2033L66.999 23.256C66.2482 23.0764 65.985 22.3089 65.706 21.6507C65.001 19.9864 64.8697 17.3053 65.4907 15.389C65.6512 14.8926 66.3765 13.3311 66.0825 12.8727C65.9422 12.4158 65.4795 12.152 65.2215 11.8016C64.883 11.3329 64.5942 10.8306 64.3597 10.3028C63.7822 9.00512 63.5129 7.54794 62.9062 6.23539C62.6152 5.60781 62.1247 4.97358 61.7212 4.41607C61.275 3.79743 60.7747 3.34267 60.4282 2.59583C60.3052 2.33049 60.1379 1.90492 60.3202 1.63212C60.3779 1.44802 60.4612 1.37132 60.6442 1.31095C60.9562 1.07169 61.8262 1.39078 62.1517 1.52494C63.0157 1.88196 63.7365 2.22097 64.4685 2.70246C64.8195 2.93427 65.1742 3.38158 65.5995 3.50531H66.084C66.8422 3.67823 67.692 3.55816 68.4 3.77208C69.6525 4.15071 70.7745 4.73881 71.793 5.37832C74.8973 7.32665 77.4346 10.0993 79.1716 13.4072C79.4506 13.9401 79.5721 14.4477 79.8173 15.0127C80.3139 16.1516 80.9394 17.3239 81.4329 18.4382C81.9256 19.5495 82.4064 20.6713 83.1031 21.5963C83.4691 22.0823 84.8836 22.3431 85.5264 22.613C85.9771 22.8023 86.7151 22.9997 87.1419 23.2546C87.9572 23.7435 88.7476 24.3257 89.5119 24.8608C89.8937 25.1306 91.0689 25.7173 91.1274 26.201Z" fill="#A07250"/>
<path d="M24.7991 33.8779H27.8794V40.5398C27.8509 40.9013 27.9964 41.7511 29.6839 41.7779C30.5449 41.7914 36.3305 41.7779 36.3845 41.7779V33.8452H39.4723C39.4856 33.8452 39.4713 43.3161 39.4694 44.5712L39.4692 44.7078C39.4857 47.3762 36.1385 47.9553 34.595 48H24.8659V45.9399L24.9 45.9399C25.5273 45.9401 34.589 45.9421 34.6122 45.9392C36.596 45.7313 36.3612 44.7518 36.3605 44.4223V43.6189H29.8122C26.7657 43.5913 24.8247 42.2698 24.7999 40.7493C24.7984 40.6099 24.8666 33.945 24.7991 33.8779Z" fill="#A07250"/>
<path d="M0.875427 43.721H3.95648V31.6292L8.7265 42.1706C9.28901 43.4467 10.0593 43.8977 11.5705 43.8977C13.0818 43.8977 13.8228 43.4467 14.3853 42.1706L19.1554 31.6292V43.721H22.2364V31.6494C22.2364 30.4717 21.7624 29.9015 20.7844 29.6079C18.4436 28.8819 16.8731 29.5103 16.1621 31.0807L11.4813 41.4842L6.94899 31.08C6.26724 29.5103 4.66746 28.8819 2.32669 29.6071C1.34868 29.9015 0.874695 30.471 0.874695 31.6486L0.875427 43.721Z" fill="#A07250"/>
<path d="M41.8475 43.721H50.7066C51.7439 43.721 52.7518 43.5056 53.5513 43.1329C54.8841 42.5247 55.5359 41.7005 55.5359 40.6197V38.3822C55.5359 37.499 54.7956 36.6738 53.3436 36.1253C52.5734 35.8301 51.6246 35.6743 50.7058 35.6743H46.9723C45.7281 35.6743 45.1356 35.3017 44.9878 34.4773C44.9586 34.379 44.9586 34.3006 44.9586 34.2022V32.8085C44.9586 32.7302 44.9586 32.6512 44.9878 32.5536C45.1356 31.9252 45.4618 31.7487 46.5583 31.6503L46.8546 31.6308H55.6544V29.59H47.0031C45.7588 29.59 45.1071 29.6683 44.5146 29.845C42.6778 30.4144 41.8768 31.317 41.8768 32.8875V34.6733C41.8768 36.0477 43.448 37.2254 46.0843 37.5004C46.3813 37.519 46.6768 37.5399 46.973 37.5399H50.1733C50.2918 37.5399 50.4103 37.54 50.4996 37.5586C51.4776 37.6369 51.8916 37.8142 52.1886 38.1668C52.2647 38.2366 52.3251 38.3216 52.3658 38.4162C52.4065 38.5109 52.4267 38.6132 52.4249 38.7161V40.5027C52.4249 40.7181 52.2771 40.993 51.9808 41.2286C51.7146 41.4641 51.2699 41.6214 50.6773 41.6609L50.3511 41.6802H41.8475V43.721Z" fill="#DCA780"/>
<path fill-rule="evenodd" clip-rule="evenodd" d="M57.5024 40.2745V32.9963C57.5024 31.1478 58.8089 30.0261 61.3919 29.6721C61.6672 29.6329 61.9449 29.6131 62.2229 29.6131H68.0722C68.3692 29.6131 68.6362 29.6326 68.9325 29.6721C71.5155 30.0261 72.8228 31.1471 72.8228 32.9963V40.2745C72.8228 41.7756 72.2677 42.5776 70.989 43.1008L74.025 45.8237H70.4468L67.9912 43.6204L65.5192 43.7761H62.2229C61.6106 43.7722 61.0016 43.6862 60.4124 43.5205C58.4526 42.9898 57.5024 41.9664 57.5024 40.2745ZM60.8872 40.4132C60.8572 40.2954 60.8279 40.1964 60.8279 40.098L60.8271 33.1752C60.8271 32.2509 61.7182 31.6606 63.0832 31.6606H67.7452C68.9325 31.6606 69.7342 32.1122 69.9127 32.8993C69.942 32.9977 69.942 33.0969 69.942 33.1752V40.1575C69.942 40.2559 69.942 40.3543 69.9127 40.4527C69.8175 40.8827 69.546 41.2167 69.132 41.4366L66.8902 39.4242H63.312L65.883 41.731H63.0839C61.8674 41.731 61.0649 41.2591 60.8872 40.4132Z" fill="#DCA780"/>
<path d="M74.7585 40.1688C74.7585 42.2684 76.329 43.446 79.4986 43.6822C79.7948 43.7016 80.0911 43.721 80.3873 43.721H88.4169V41.6802H80.3288C78.5213 41.6802 77.8403 41.2286 77.8403 40.1486V29.5886H74.7593L74.7585 40.1688Z" fill="#DCA780"/>
<path d="M67.053 5.80904C66.7264 5.80372 66.4006 5.83982 66.0832 5.9164V5.96935H66.1372C66.3255 6.3547 66.6578 6.60213 66.891 6.93306L67.4303 8.05708L67.4835 8.00413C67.8172 7.77084 67.9695 7.39736 67.968 6.82643C67.8337 6.6863 67.8142 6.51115 67.6987 6.34494C67.5457 6.12133 67.2472 5.99612 67.053 5.80904Z" fill="#A07250"/>
</svg>

<svg xmlns="http://www.w3.org/2000/svg" width="94" height="48" fill="none"><path fill="#A07250" d="M91.13 26.2a10.9 10.9 0 0 0-4.58.64c-.35.15-.91.15-.97.6.2.2.22.5.38.74.3.48.8 1.11 1.24 1.45.48.36.98.75 1.5 1.07.93.56 1.97.88 2.86 1.44.52.33 1.05.75 1.56 1.13.25.18.42.47.75.58v-.05c-.17-.22-.21-.52-.37-.75l-.7-.7c-.69-.9-1.56-1.69-2.48-2.35-.74-.52-2.39-1.24-2.7-2.09l-.05-.05c.52-.06 1.14-.25 1.62-.37.8-.22 1.53-.16 2.37-.38l1.13-.32v-.21c-.42-.44-.73-1-1.19-1.4a34.66 34.66 0 0 0-3.87-2.89c-.76-.47-1.68-.77-2.48-1.17-.27-.14-.74-.2-.92-.43-.42-.53-.64-1.2-.97-1.82a69.15 69.15 0 0 1-1.94-4.07c-.4-.93-.67-1.84-1.18-2.68-2.45-4-5.08-6.4-9.16-8.77-.86-.5-1.9-.7-3.01-.97l-1.78-.1c-.36-.15-.74-.6-1.08-.8-1.35-.86-4.81-2.7-5.81-.27-.64 1.53.94 3.02 1.5 3.8.4.54.9 1.15 1.19 1.76.19.4.22.8.38 1.23.39 1.05.73 2.2 1.24 3.16.25.5.53 1 .86 1.45.2.26.54.38.59.8-.33.46-.35 1.18-.54 1.76-.84 2.64-.52 5.92.7 7.87.38.6 1.26 1.89 2.48 1.4 1.06-.44.83-1.77 1.13-2.95.07-.27.03-.46.16-.64v.05l.97 1.93c.72 1.15 2 2.35 3.07 3.16.56.42 1 1.14 1.72 1.39v-.06h-.05c-.14-.21-.36-.3-.54-.48-.42-.4-.89-.92-1.24-1.39a32.5 32.5 0 0 1-2.64-4.28c-.37-.72-.7-1.52-1.02-2.25-.12-.28-.12-.7-.38-.85-.34.53-.86.97-1.13 1.6-.43 1.01-.48 2.25-.64 3.53l-.11.06c-.75-.18-1.02-.95-1.3-1.6-.7-1.67-.83-4.35-.2-6.27.15-.5.88-2.06.58-2.52-.14-.45-.6-.72-.86-1.07a8.35 8.35 0 0 1-.86-1.5c-.58-1.3-.85-2.75-1.45-4.06-.3-.63-.79-1.27-1.19-1.82-.45-.62-.95-1.08-1.3-1.82-.11-.27-.28-.7-.1-.97.06-.18.14-.26.32-.32.32-.24 1.19.08 1.51.21.87.36 1.59.7 2.32 1.18.35.23.7.68 1.13.8h.48c.76.18 1.61.06 2.32.27 1.25.38 2.37.97 3.4 1.6a20.93 20.93 0 0 1 7.37 8.04c.28.53.4 1.04.65 1.6.5 1.14 1.12 2.31 1.61 3.43.5 1.1.98 2.23 1.67 3.16.37.48 1.78.74 2.43 1.01.45.2 1.19.39 1.61.64.82.5 1.6 1.08 2.37 1.61.38.27 1.56.86 1.62 1.34ZM24.8 33.88h3.08v6.66c-.03.36.12 1.21 1.8 1.24h6.7v-7.93h3.1l-.01 10.72v.14c.02 2.67-3.33 3.25-4.88 3.29h-9.72v-2.06h9.74c1.99-.2 1.75-1.19 1.75-1.52v-.8h-6.55c-3.04-.03-4.99-1.35-5.01-2.87 0-.14.07-6.8 0-6.87ZM.88 43.72h3.08v-12.1l4.77 10.55c.56 1.28 1.33 1.73 2.84 1.73 1.51 0 2.25-.45 2.82-1.73l4.77-10.54v12.1h3.08V31.64c0-1.18-.48-1.75-1.46-2.04-2.34-.73-3.9-.1-4.62 1.47l-4.68 10.4-4.53-10.4c-.68-1.57-2.28-2.2-4.62-1.47-.98.3-1.46.86-1.46 2.04v12.07Z"/><path fill="#DCA780" d="M41.85 43.72h8.86c1.03 0 2.04-.21 2.84-.59 1.33-.6 1.99-1.43 1.99-2.51v-2.24c0-.88-.74-1.7-2.2-2.25a7.6 7.6 0 0 0-2.63-.46h-3.74c-1.24 0-1.83-.37-1.98-1.2-.03-.1-.03-.17-.03-.27v-1.4c0-.07 0-.15.03-.25.15-.62.47-.8 1.57-.9l.3-.02h8.8V29.6H47c-1.24 0-1.9.08-2.49.25-1.83.57-2.63 1.48-2.63 3.05v1.78c0 1.38 1.57 2.56 4.2 2.83.3.02.6.04.9.04h3.2c.11 0 .23 0 .32.02.98.08 1.4.25 1.69.6a.73.73 0 0 1 .23.56v1.78c0 .22-.14.5-.44.73-.27.23-.71.4-1.3.43l-.33.02h-8.5v2.04Z"/><path fill="#DCA780" fill-rule="evenodd" d="M57.5 40.27V33c0-1.85 1.3-2.97 3.9-3.33.27-.04.54-.06.82-.06h5.85c.3 0 .57.02.86.06 2.59.36 3.9 1.48 3.9 3.33v7.27c0 1.5-.56 2.3-1.84 2.83l3.04 2.72h-3.58l-2.46-2.2-2.47.16h-3.3c-.6 0-1.22-.1-1.8-.26-1.97-.53-2.92-1.55-2.92-3.25Zm3.39.14c-.03-.11-.06-.21-.06-.31v-6.92c0-.93.89-1.52 2.25-1.52h4.67c1.18 0 1.98.45 2.16 1.24.03.1.03.2.03.28v6.98c0 .1 0 .2-.03.3-.1.42-.36.76-.78.98l-2.24-2.02h-3.58l2.57 2.31h-2.8c-1.21 0-2.02-.47-2.2-1.32Z" clip-rule="evenodd"/><path fill="#DCA780" d="M74.76 40.17c0 2.1 1.57 3.28 4.74 3.51.3.02.6.04.89.04h8.03v-2.04h-8.1c-1.8 0-2.48-.45-2.48-1.53V29.59h-3.08v10.58Z"/><path fill="#A07250" d="M67.05 5.8c-.32 0-.65.04-.97.12v.05h.06c.19.38.52.63.75.96l.54 1.13.05-.06c.34-.23.49-.6.49-1.17-.14-.14-.16-.32-.27-.49-.15-.22-.45-.34-.65-.53Z"/></svg>
